icon-themes/breeze_svg/cmd/sc_crop.svg

<svg viewBox="0 0 16 16" xmlns="http://www.w3.org/2000/svg">/&gt;<path d="m4 2v2h-2v1h2v6 1h1 6v2h1v-2h2v-1h-2v-6-.3125l2-2-.6875-.6875-2 2h-.3125-6v-2zm1 3h5.3125l-5.3125 5.3125zm6 .6875v5.3125h-5.3125z" fill="#4d4d4d"/></svg>

<svg xmlns="http://www.w3.org/2000/svg" viewBox="0 0 16 16">
     />
 <path 
     style="fill:#4d4d4d" 
     d="M 4 2 L 4 4 L 2 4 L 2 5 L 4 5 L 4 11 L 4 12 L 5 12 L 11 12 L 11 14 L 12 14 L 12 12 L 14 12 L 14 11 L 12 11 L 12 5 L 12 4.6875 L 14 2.6875 L 13.3125 2 L 11.3125 4 L 11 4 L 5 4 L 5 2 L 4 2 z M 5 5 L 10.3125 5 L 5 10.3125 L 5 5 z M 11 5.6875 L 11 11 L 5.6875 11 L 11 5.6875 z "
     />
 </svg>
